X: 42205
T: Waverly
R: reel
M: 4/4
K: Gminor
|:B,2C2 E2FE|GEFE GBBG|B2Bc G2F2|EGFE CEEC|
B,2C2 E2FE|GEFE GBBG|cdcB G2GF|1 EGFE CEEC:|2 EGFE CEEd||
|:e2ed edcB|G2B2|cdcB G2GF|EGFE CEEd|
e2ed edcB|G2B2|cdcB G2GF|1 EGFE CEEd:|2 EGFE CEEC||

